X: 824
T: Gesi Bağlarında Dolanıyorum
C: Ahmet Gazi Ayhan
O: Turkey
F: http://compmusic.upf.edu/node/140
N: beyati--turku--nimsofyan--gesi_baglarinda--kayseri
N: makam= beyati
N: form= turku
N: usul= nimsofyan = 2/4
M: 2/4
L: 1/16
K: C _2/4B   
Q: 1/4=60
%%MIDI tuningsystem comma53
d3/2c/dB cB2G  | A2AG A2BA  | ed2B cB2G  | \
w:  ARANAĞME  |   |   | 
A3A A2A2  | 
w:   | 
A2Ad cde2  | g4 ^3/4f3e  | z24  | e2eee2e2e2e2 ee2dde2d(3e/d/e/cd2  | 
w:   |  Of   |  |  *  Ge si  bağ la rın da  do la *  nı yo *  rum    | 
c2cdd3ccded ecd2Bc2BA4  | z2BdcdB2c2BA B2A2A6z2  | 
w:  Yi tir *  *  *  dim  *  *  *  yâ *  *  ri *  *  mi   |  a man_ a ra *  nı *  *  *  yo rum    | 
z8  | A3/2G/AB cdef  | e3/2d/ec d4  | z24  | \
w:  |  SAZ  |   |  | 
c2cdd3ccded ecd2Bc2BA4  | 
w:  Yi tir *  *  *  dim  *  *  *  yâ *  *  ri *  *  mi   | 
z2BdcdB2c2BA B2A2A6z2  | z8  | d3/2c/dB c3/2A/BG  | 
w:  a man_ a ra *  nı *  *  *  yo rum    |  |  SAZ  | 
A2BG A2BA  | ed2B cB2G  | A2Ad cde2  | z24  | \
w:   |   |   |  | 
z2cdee3e2e2 ee2dde2d(3e/d/e/cd2  | 
w:  Bir  çift  se lâ mı na  gü ve *  ni yo *  rum    | 
c2cdd3ccded ecd2Bc2BA4  | z2BdcdB2c2BA B2A2A6z2  | 
w:  Gel_ o *  *  *  tur  *  *  *  ya *  *  nı *  *  ma   |  hal le ri mi  *  söy *  *  *  le yim    | 
z8  | A3/2G/AB cdef  | e3/2d/ec d4  | z24  | \
w:  |  SAZ  |   |  | 
c2cdd3ccded ecd2Bc2BA4  | 
w:  Hâ lim *  *  *  den  *  *  *  bil *  *  mi *  *  yor   | 
z2BdcdB2c2BA B2A2A6z2  | z8  | d3/2c/dB cB2G  | 
w:  ben_ o  yâ ri  *  ney *  *  *  le yim    |  |  ARANAĞME  | 
A2AG A2BA  | ed2B cB2G  | A3A A2A2  | A2Ad cde2  | 
w:   |   |   |   | 
g4 ^3/4f3e  | z24  | e2eee2e2e2e2 ee2dde2d(3e/d/e/cd2  | 
w:  Of   |  |  *  Ge si  bağ la rın da  do la *  nı yo *  rum    | 
c2cdd3ccded ecd2Bc2BA4  | z2BdcdB2c2BA B2A2A6z2  | 
w:  Yi tir *  *  *  dim  *  *  *  yâ *  *  ri *  *  mi   |  a man_ a ra *  nı *  *  *  yo rum    | 
z8  | A3/2G/AB cdef  | e3/2d/ec d4  | z24  | \
w:  |  SAZ  |   |  | 
c2cdd3ccded ecd2Bc2BA4  | 
w:  Yi tir *  *  *  dim  *  *  *  yâ *  *  ri *  *  mi   | 
z2BdcdB2c2BA B2A2A6z2  | z8  | d3/2c/dB c3/2A/BG  | 
w:  a man_ a ra *  nı *  *  *  yo rum    |  |  SAZ  | 
A2BG A2BA  | ed2B cB2G  | A2Ad cde2  | z24  | \
w:   |   |   |  | 
z2cdee3e2e2 ee2dde2d(3e/d/e/cd2  | 
w:  Bir  çift  se lâ mı na  gü ve *  ni yo *  rum    | 
c2cdd3ccded ecd2Bc2BA4  | z2BdcdB2c2BA B2A2A6z2  | 
w:  Gel_ o *  *  *  tur  *  *  *  ya *  *  nı *  *  ma   |  hal le ri mi  *  söy *  *  *  le yim    | 
z8  | A3/2G/AB cdef  | e3/2d/ec d4  | z24  | \
w:  |  SAZ  |   |  | 
c2cdd3ccded ecd2Bc2BA4  | 
w:  Hâ lim *  *  *  den  *  *  *  bil *  *  mi *  *  yor   | 
z2BdcdB2c2BA B2A2A6z2  | |


